img/social/dr.svg

<svg width="61" height="60" viewBox="0 0 61 60" fill="none" xmlns="http://www.w3.org/2000/svg">
<rect x="0.866669" width="59.9333" height="59.9333" rx="29.9667" fill="black"/>
<path fill-rule="evenodd" clip-rule="evenodd" d="M29.3911 17.9833C28.7471 18.0652 27.5757 18.343 26.9144 18.5707C22.8683 19.9635 19.9146 23.3268 19.0033 27.579C18.8469 28.3084 18.8352 28.4708 18.8334 29.9273C18.8318 31.3206 18.8475 31.5705 18.977 32.209C19.9196 36.8585 23.3016 40.4457 27.8595 41.6303C28.9317 41.909 29.7701 41.9927 31.1619 41.96C32.6381 41.9252 33.3291 41.8097 34.6407 41.3787C38.7579 40.0256 41.8078 36.5503 42.6879 32.209C42.8165 31.5749 42.8333 31.3146 42.8333 29.9586C42.8333 28.6026 42.8165 28.3423 42.6879 27.7082C41.8055 23.3553 38.7634 19.8934 34.6263 18.5338C33.2529 18.0825 32.6483 17.988 31.0205 17.9705C30.245 17.9622 29.5118 17.9679 29.3911 17.9833ZM31.7098 20.0321C33.1538 20.1131 34.9307 20.73 36.2727 21.6164C36.8819 22.0187 36.9024 21.9308 36.0273 22.6653C35.0587 23.4781 33.9209 24.2193 32.7025 24.8309L32.0972 25.1348L32.0057 24.9953C31.9554 24.9186 31.8149 24.6591 31.6933 24.4187C31.0951 23.2346 30.0973 21.7416 29.1215 20.5708C28.9224 20.3319 28.8585 20.2136 28.9122 20.1836C29.079 20.0904 30.5235 19.9548 30.9892 19.9886C31.0926 19.9961 31.4169 20.0157 31.7098 20.0321ZM27.2243 21.57C28.2191 22.6835 29.0792 23.9248 29.8053 25.2949L30.1482 25.9421L29.7877 26.0768C28.6018 26.52 26.4918 27.0383 25.0855 27.2318C24.0308 27.3771 22.3194 27.4759 21.7214 27.4262L21.1915 27.3821L21.2864 27.0587C21.9733 24.7182 23.7364 22.5361 25.9599 21.2746C26.2785 21.0938 26.5678 20.946 26.603 20.946C26.6381 20.946 26.9177 21.2268 27.2243 21.57ZM39.1127 24.4167C39.6233 25.1707 40.0058 25.9482 40.2964 26.8227C40.643 27.8659 40.735 28.3659 40.7769 29.433L40.814 30.3781L39.693 30.4215C37.9252 30.4898 36.095 30.7351 34.6949 31.0913C34.4238 31.1603 34.1956 31.2082 34.1878 31.1979C34.1799 31.1875 34.0958 30.8609 34.0007 30.4721C33.7924 29.6196 33.4361 28.4531 33.1351 27.6382L32.9139 27.0389L33.5809 26.7077C34.4361 26.2831 35.2054 25.8287 36.043 25.2533C36.737 24.7768 37.8081 23.917 38.1333 23.5756L38.3213 23.3783L38.5273 23.6173C38.6406 23.7487 38.904 24.1085 39.1127 24.4167ZM31.4993 29.2375C31.6232 29.6169 31.8312 30.348 31.9615 30.8621L32.1985 31.7969L31.3432 32.1196C28.5569 33.1709 26.08 34.6694 24.3389 36.3571L23.7048 36.9718L23.2677 36.4538C22.6589 35.7323 22.2243 35.0646 21.835 34.2522C21.1844 32.895 20.9383 31.9044 20.8864 30.4336L20.8512 29.4379L21.6275 29.4784C24.076 29.6061 27.6603 29.033 30.3165 28.089L30.9892 27.85L31.1317 28.1988C31.21 28.3907 31.3754 28.858 31.4993 29.2375ZM40.4453 32.6342C40.3494 33.0424 39.9463 34.0409 39.6556 34.5901C38.685 36.424 37.1653 37.91 35.2863 38.8626C34.7278 39.1457 34.5568 39.2086 34.5417 39.136C34.531 39.0843 34.5534 38.8359 34.5915 38.5841C34.7068 37.8217 34.7444 35.4661 34.6573 34.4603C34.6143 33.9637 34.5751 33.4895 34.5702 33.4065C34.5596 33.2278 34.5595 33.2278 35.8459 32.9656C37.3683 32.6554 38.6891 32.5005 40.0615 32.4712L40.4857 32.4621L40.4453 32.6342ZM32.5687 34.1363C32.5961 34.2654 32.6176 35.1737 32.6166 36.1548C32.6147 37.9347 32.5776 38.3654 32.3273 39.5117L32.2571 39.8332L31.8766 39.8762C31.3063 39.9406 29.9709 39.9231 29.4465 39.8442C28.2892 39.6703 27.2573 39.331 26.1951 38.7752C25.2612 38.2866 25.2945 38.3428 25.6966 37.9327C27.0231 36.5796 29.0935 35.2839 31.5532 34.2678C32.0357 34.0684 32.4504 33.9044 32.4747 33.9034C32.4989 33.9024 32.5412 34.0073 32.5687 34.1363Z" fill="white"/>
</svg>

<svg width="61" height="60" fill="none" xmlns="http://www.w3.org/2000/svg"><rect x=".867" width="59.933" height="59.933" rx="29.967" fill="#000"/><path fill-rule="evenodd" clip-rule="evenodd" d="M29.391 17.983c-.644.082-1.815.36-2.477.588-4.046 1.392-7 4.756-7.91 9.008-.157.73-.169.892-.17 2.348-.002 1.394.014 1.643.143 2.282.943 4.65 4.325 8.237 8.883 9.421 1.072.279 1.91.363 3.302.33 1.476-.035 2.167-.15 3.479-.581 4.117-1.353 7.167-4.829 8.047-9.17.128-.634.145-.894.145-2.25 0-1.356-.017-1.617-.145-2.25-.883-4.354-3.925-7.816-8.062-9.175-1.373-.451-1.978-.546-3.605-.563-.776-.009-1.51-.003-1.63.012Zm2.319 2.05c1.444.08 3.22.697 4.563 1.583.609.403.63.315-.246 1.05a17.262 17.262 0 0 1-3.325 2.165l-.605.304-.091-.14a8.99 8.99 0 0 1-.313-.576c-.598-1.184-1.596-2.677-2.572-3.848-.199-.24-.262-.357-.209-.387.167-.094 1.611-.23 2.077-.195.104.007.428.027.72.043Zm-4.486 1.537a18.72 18.72 0 0 1 2.581 3.725l.343.647-.36.135c-1.186.443-3.296.961-4.703 1.155-1.054.145-2.766.244-3.364.194l-.53-.044.095-.323c.687-2.34 2.45-4.523 4.674-5.784.319-.181.608-.329.643-.329.035 0 .315.28.621.624Zm11.889 2.847a9.61 9.61 0 0 1 1.183 2.406c.347 1.043.439 1.543.48 2.61l.038.945-1.121.044c-1.768.068-3.598.313-4.998.67-.271.068-.5.116-.507.106-.008-.01-.092-.337-.187-.726a29.392 29.392 0 0 0-.866-2.834l-.221-.6.667-.33a19.66 19.66 0 0 0 2.462-1.455c.694-.476 1.765-1.336 2.09-1.677l.188-.198.206.24c.114.13.377.49.586.799Zm-7.614 4.82c.124.38.332 1.111.463 1.625l.237.935-.856.323c-2.786 1.05-5.263 2.55-7.004 4.237l-.634.615-.437-.518a9.89 9.89 0 0 1-1.433-2.202c-.65-1.357-.897-2.348-.949-3.818l-.035-.996.777.04c2.448.128 6.032-.445 8.689-1.389l.672-.239.143.349c.078.192.243.659.367 1.038Zm8.946 3.397c-.096.408-.499 1.407-.79 1.956a10.076 10.076 0 0 1-4.369 4.273c-.558.283-.73.346-.744.273-.011-.052.011-.3.05-.552.115-.762.152-3.118.065-4.124a87.24 87.24 0 0 1-.087-1.053c-.01-.18-.01-.18 1.276-.441 1.522-.31 2.843-.465 4.216-.495l.424-.009-.04.172Zm-7.876 1.502c.027.13.049 1.038.048 2.019-.002 1.78-.04 2.21-.29 3.357l-.07.321-.38.043c-.57.065-1.906.047-2.43-.032a10.022 10.022 0 0 1-3.252-1.069c-.934-.488-.9-.432-.498-.842 1.326-1.353 3.396-2.65 5.856-3.665.483-.2.897-.364.922-.365.024 0 .066.104.094.233Z" fill="#fff"/></svg>
